X:290
T:Glengarry's Dirk
T:Biodag Dh\`o'ill 'ic Alasdair
R:Strathspey
B:The Athole Collection
M:C
L:1/8
K:A
E<C C>B, A,>C E<C|E<C C>c BA F2|E<C C>B, A,>CE>C|c>BA>F E<C B,2:|
C>EA>E F>EA>E|C>EA>E F>E C2|C>EA>E F>EA>E| c>B A<F E<C B,2|
C>EA>E F>EA>E|C>EA>c ecd2|c>ae>c d>Bc>A|B>GA>F E>C B,2||

